X:1214
T:Bat' an Aisig
T:The Ferry Boat
S:Angus Fraser Collection
M:3/4
L:1/4
Q:1/4=150
R:rowing song
K:APhr % really D minor
A2 G|A<D z|F2 G|A2 A/z/|A f2|   e2  c|d2 e|f<A z   |A2 G|A<D z|F2 G|A2 A/z/||
A2 A|A2  G|A2 c|d2 c/z/|B2 A|{A}G2  F|F2 A|G<B z   |A2 G|A<D z|F2 G|A2 A/z/|
A f2|e2  c|d2 e|f<A   z|A2 G|   A<D z|F2 G|A2  A/z/|]
 


